X:8
T:Far Away Waltz
M:3/4
L:1/8
C:Peter Jung
K:D
FA|:B3F Bd|cAF2FA|B3F Be|c4dc|
B3G Bd|cAF2de|fed cBA|1B4 FA:|2
B3c de|:f3d fa|ecA2de|f3d fa|e4de|
fdB ecA|dBG cAE|F2B2A2|1B3c de:|2B3A FA|
